dist/assets/img/iconsfont/cart.svg

<svg width="32" height="34" viewBox="0 0 32 34" fill="none" xmlns="http://www.w3.org/2000/svg">
<path fill-rule="evenodd" clip-rule="evenodd" d="M4.65214 2.24957H0V0.749573H4.65214C6.00406 0.749573 7.15546 1.73221 7.36796 3.06732L7.99688 7.01882H29.7121C30.8545 7.01882 31.6906 8.09558 31.4076 9.20234L29.5067 16.6364C29.0823 18.2963 27.5869 19.4574 25.8736 19.4574H9.9766L10.3874 22.0383C10.484 22.6452 11.0073 23.0918 11.6218 23.0918H28.203V24.5918H11.6218C10.2699 24.5918 9.11852 23.6092 8.90602 22.2741L5.8866 3.3031C5.79002 2.69623 5.26665 2.24957 4.65214 2.24957ZM9.73786 17.9574H25.8736C26.9016 17.9574 27.7988 17.2607 28.0535 16.2648L29.9543 8.83075C29.9948 8.67264 29.8753 8.51882 29.7121 8.51882H8.23562L9.73786 17.9574Z" fill="black"/>
<path fill-rule="evenodd" clip-rule="evenodd" d="M13.5695 31.8258C14.3183 31.8258 15.0189 31.1799 15.0189 30.2656C15.0189 29.3513 14.3183 28.7054 13.5695 28.7054C12.8207 28.7054 12.1201 29.3513 12.1201 30.2656C12.1201 31.1799 12.8207 31.8258 13.5695 31.8258ZM13.5695 33.3258C15.1984 33.3258 16.5189 31.9557 16.5189 30.2656C16.5189 28.5755 15.1984 27.2054 13.5695 27.2054C11.9406 27.2054 10.6201 28.5755 10.6201 30.2656C10.6201 31.9557 11.9406 33.3258 13.5695 33.3258Z" fill="black"/>
<path fill-rule="evenodd" clip-rule="evenodd" d="M26.5466 31.8258C27.2954 31.8258 27.996 31.1799 27.996 30.2656C27.996 29.3513 27.2954 28.7054 26.5466 28.7054C25.7977 28.7054 25.0972 29.3513 25.0972 30.2656C25.0972 31.1799 25.7977 31.8258 26.5466 31.8258ZM26.5466 33.3258C28.1755 33.3258 29.496 31.9557 29.496 30.2656C29.496 28.5755 28.1755 27.2054 26.5466 27.2054C24.9177 27.2054 23.5972 28.5755 23.5972 30.2656C23.5972 31.9557 24.9177 33.3258 26.5466 33.3258Z" fill="black"/>
</svg>

<svg width="32" height="34" fill="none" xmlns="http://www.w3.org/2000/svg"><path fill-rule="evenodd" clip-rule="evenodd" d="M4.652 2.25H0V.75h4.652a2.75 2.75 0 012.716 2.317l.629 3.952h21.715a1.75 1.75 0 011.696 2.183l-1.901 7.434a3.75 3.75 0 01-3.633 2.821H9.977l.41 2.581a1.25 1.25 0 001.235 1.054h16.581v1.5H11.622a2.75 2.75 0 01-2.716-2.318l-3.02-18.97A1.25 1.25 0 004.653 2.25zm5.086 15.707h16.136a2.25 2.25 0 002.18-1.692l1.9-7.434a.25.25 0 00-.242-.312H8.236l1.502 9.438zm3.832 13.869c.748 0 1.449-.646 1.449-1.56 0-.915-.7-1.56-1.45-1.56-.748 0-1.449.645-1.449 1.56 0 .914.7 1.56 1.45 1.56zm0 1.5c1.628 0 2.949-1.37 2.949-3.06s-1.32-3.06-2.95-3.06c-1.628 0-2.949 1.37-2.949 3.06s1.32 3.06 2.95 3.06zm12.977-1.5c.748 0 1.449-.646 1.449-1.56 0-.915-.7-1.56-1.45-1.56-.748 0-1.449.645-1.449 1.56 0 .914.7 1.56 1.45 1.56zm0 1.5c1.628 0 2.949-1.37 2.949-3.06s-1.32-3.06-2.95-3.06c-1.628 0-2.949 1.37-2.949 3.06s1.32 3.06 2.95 3.06z" fill="#000"/></svg>
